X:1
T:Jock o' Hazeldine
M:2/4
L:1/8
K:G
 z3 d| dB A3/2 G/2| GB dD| GG c3/2 B/2| B2- Ad| dB A3/2 G/2| GB DD|\
 GB A3/2 G/2| G3 B| c3/2 B/2 cd| ed dd| dB(2A3.99999962500005/5.99999925000009A3.99999962500005/5.99999925000009B3.99999962500005/5.99999925000009 d3.99999962500005/5.99999925000009|\
 e3 d| dB A3/2 G/2| GB DD| GB A3/2 G/2| G3 z|
